public/images/flags/IS.svg

<svg width="21" height="15" viewBox="0 0 21 15" fill="none" xmlns="http://www.w3.org/2000/svg">
<path d="M19 0H2C0.89543 0 0 0.89543 0 2V13C0 14.1046 0.89543 15 2 15H19C20.1046 15 21 14.1046 21 13V2C21 0.89543 20.1046 0 19 0Z" fill="#0172C6"/>
<path d="M21 6H7.58V0H4.58V6H0V9H4.58V15H7.58V9H21V6Z" fill="#F6F9FC"/>
<path d="M21 7H6.58V0H5.58V7H0V8H5.58V15H6.58V8H21V7Z" fill="#E25950"/>
</svg>

<svg width="21" height="15" fill="none" xmlns="http://www.w3.org/2000/svg"><path d="M19 0H2a2 2 0 0 0-2 2v11a2 2 0 0 0 2 2h17a2 2 0 0 0 2-2V2a2 2 0 0 0-2-2z" fill="#0172C6"/><path d="M21 6H7.58V0h-3v6H0v3h4.58v6h3V9H21V6z" fill="#F6F9FC"/><path d="M21 7H6.58V0h-1v7H0v1h5.58v7h1V8H21V7z" fill="#E25950"/></svg>
